!!!!SEGMENT: pl-kk--kk-i-8--032_anonim--jesu-redemptor-omnium.krn
!!!cenid: 16xx:1173
!!!COM: Anonim
!!!COM-rismID: pe30004985
!!!CDT:
!!!CNT:
!!!OTL: Jesu Redemptor omnium
!!!PDT:
!!!AGN: Sacred
!!!SMS-siglum: PL-Kk
!!!SMS-shelfmark: Kk.I.8
!!!SMS-shelfwork: 032 W
!!!SMS-variant:
!!!SMS-altvar:
!!!NIFC-rismSourceID: 1001148105
!!!NIFC-rismChildID: 1001149147
!!!NIFC-islandoraID: pl-kk:2296
!!!URL-pdf-islandora: https://repozytorium.nifc.pl/islandora/object/pl-kk%3A2296/datastream/PDF/view
!!!URL-scan: https://polish.musicsources.pl/pl/lokalizacje/galeria/rekopisy/6141 @EN{Scan on Polish Music Sources Website} @PL{Skany w portalu Dziedzictwo Muzyki Polskiej w otwartym dostępie}
!!!ONB-nifc: UWAGA: A (skan 0020), T1 (0043), T2 (0067), B (0090). Następny utwór: Homo Dei creatura
!!!AIN: 1 alto 1 empty 2 tenor
!!!key:
**kern	**text	**text	**text	**kern	**text	**text	**text	**kern	**text	**text	**text	**kern	**text	**text	**text
*part4	*part4	*part4	*part4	*part3	*part3	*part3	*part3	*part2	*part2	*part2	*part2	*part1	*part1	*part1	*part1
*staff4	*staff4	*staff4	*staff4	*staff3	*staff3	*staff3	*staff3	*staff2	*staff2	*staff2	*staff2	*staff1	*staff1	*staff1	*staff1
*Iempty	*	*	*	*Itenor	*	*	*	*Itenor	*	*	*	*Ialto	*	*	*
*I"[Basso]	*	*	*	*I"[Tenore II]	*	*	*	*I"[Tenore I]	*	*	*	*I"[Alto]	*	*	*
*I'[B.]	*	*	*	*I'[T.II]	*	*	*	*I'[T.I]	*	*	*	*I'[A.]	*	*	*
*clefF4	*	*	*	*clefC4	*	*	*	*clefC4	*	*	*	*clefC3	*	*	*
*k[b-]	*	*	*	*k[b-]	*	*	*	*k[b-]	*	*	*	*k[b-]	*	*	*
*g:	*	*	*	*g:	*	*	*	*g:	*	*	*	*g:	*	*	*
*M3/1	*	*	*	*M3/1	*	*	*	*M3/1	*	*	*	*M3/1	*	*	*
=1	=1	=1	=1	=1	=1	=1	=1	=1	=1	=1	=1	=1	=1	=1	=1
!LO:TX:t=P:problem=all\right&colon; global	!	!	!	!LO:TX:t=P:problem=all\right&colon; global	!	!	!	!LO:TX:t=P:problem=all\right&colon; global	!	!	!	!	!	!	!
1G\	1 Je-	3 Me-	5 Hunc	1G/	1 Je-	3 Me-	5 Hunc	1B-\	1 Je-	3 Me-	5 Hunc	1d\	1 Je-	3 Me-	5 Hunc
!	!	!	!	!	!	!	!	!LO:TX:a:t=1ma	!	!	!	!	!	!	!
1G\	-su	-men-	as-	1G/	-su	-men-	as-	1B-\	-su	-men-	as-	1d\	-su	-men-	as-
1E-X\	Re-	-to	-tra	1G/	Re-	-to	-tra	1c\	Re-	-to	-tra	1g\	Re-	-to	-tra
=2	=2	=2	=2	=2	=2	=2	=2	=2	=2	=2	=2	=2	=2	=2	=2
*	*	*	*	*	*	*	*	*lig	*	*	*	*	*	*	*
0D\	-dem-	re-	tel-	0A\	-dem-	re-	tel-	1d\	-dem-	re-	tel-	(1f\	-dem-	re-	tel-
.	.	.	.	.	.	.	.	1c\	.	.	.	1e-\)	.	.	.
*	*	*	*	*	*	*	*	*Xlig	*	*	*	*	*	*	*
1G\	-ptor	-ru(m)	-l(us)	1B-\	-ptor	-ru(m)	-l(us)	1B-\	-ptor	-ru(m)	-l(us)	1d\	-ptor	-ru(m)	-l(us)
=3	=3	=3	=3	=3	=3	=3	=3	=3	=3	=3	=3	=3	=3	=3	=3
1.C/	om-	con-	ae-	0G/	om-	con-	ae-	1c\	om-	con-	ae-	0e-\	om-	con-	ae-
.	.	.	.	.	.	.	.	1.B-\	.	.	.	.	.	.	.
4D\	.	.	.	.	.	.	.	.	.	.	.	.	.	.	.
4E\	.	.	.	.	.	.	.	.	.	.	.	.	.	.	.
*2\right	*	*	*	*	*	*	*	*	*	*	*	*	*	*	*
2F\	-ni-	-di-	-quo-	1F/	-ni-	-di-	-quo-	.	.	.	.	1e-\	-ni-	-di-	-quo-
*	*	*	*	*	*	*	*	*2\right	*	*	*	*	*	*	*
2F\	.	.	.	.	.	.	.	2A\	-ni-	-di-	-quo-	.	.	.	.
=4	=4	=4	=4	=4	=4	=4	=4	=4	=4	=4	=4	=4	=4	=4	=4
0BB-/	-u(m)	-tor	-ra	0F/	-u(m)	-tor	-ra	0B-\	-u(m)	-tor	-ra	0d\	-u(m)	-tor	-ra
1B-\	que(m)	No-	hunc	2F/	que(m)	No-	hunc	1d\	que(m)	No-	hunc	1f\	que(m)	No-	hunc
.	.	.	.	2G/	.	.	.	.	.	.	.	.	.	.	.
=5	=5	=5	=5	=5	=5	=5	=5	=5	=5	=5	=5	=5	=5	=5	=5
0A\	lu-	-ſtri	om-	0A\	lu-	-ſtri	om-	0c\	lu-	-ſtri	om-	0f#X\	lu-	-ſtri	om-
1A\	-ciſ	quod	-ne	1A\	-ciſ	quod	-ne	1c\	-ciſ	quod	-ne	1f#\	-ciſ	quod	-ne
=6	=6	=6	=6	=6	=6	=6	=6	=6	=6	=6	=6	=6	=6	=6	=6
1G\	an-	o-	quod	1B-\	an-	o-	quod	1B-\	an-	o-	quod	1g\	an-	o-	quod
1B-\	-te	.	Coe-	1d\	-te	.	Coe-	1B-\	-te	.	Coe-	1f\	-te	.	Coe-
1F\	o-	-lim	.	1A\	o-	-lim	.	1d\	o-	-lim	.	1a\	o-	-lim	.
=7	=7	=7	=7	=7	=7	=7	=7	=7	=7	=7	=7	=7	=7	=7	=7
1G\	-ri-	Cor-	-lo	1B-\	-ri-	Cor-	-lo	1d\	-ri-	Cor-	-lo	1f\	-ri-	Cor-	-lo
1.A\	.	-po-	Sub-	1.A\	.	-po-	Sub-	1.d\	.	-po-	Sub-	1.e\	.	-po-	Sub-
!	!	!	!	!LO:TX:t=P:problem=brak kreski taktowej	!	!LO:TX:t=P:problem= # below	!	!	!	!	!	!	!	!	!
*	*	*	*	*2\right	*	*	*	*	*	*	*	*	*	*	*
2A\	-gi-	-ris	-eſt	2A\	-gi-	-ris	-eſt	2c#X\	-gi-	-ris	-eſt	2e\	-gi-	-ris	-eſt
=8	=8	=8	=8	=8-	=8	=8	=8	=8	=8	=8	=8	=8	=8	=8	=8
0.D\	-nem	Sa-	Sa-	0.A\	-nem	Sa-	Sa-	0.d\	-nem	Sa-	Sa-	0.d\	-nem	Sa-	Sa-
!	!	!	!	!	!	!	!	!LO:LB:g=original	!	!	!	!	!	!	!
=9	=9	=9	=9	=9	=9	=9	=9	=9	=9	=9	=9	=9	=9	=9	=9
1BB-/	Pa-	-cra-	-lu-	1B-\	Pa-	-cra-	-lu-	1d\	Pa-	-cra-	-lu-	1f\	Pa-	-cra-	-lu-
1GG/	-re(m)	-ta	-t(is)	1B-\	-re(m)	-ta	-t(is)	1d\	-re(m)	-ta	-t(is)	1.g\	-re(m)	-ta	-t(is)
1C/	Pa-	ab	au-	1c\	Pa-	ab	au-	1e\	Pa-	ab	au-	.	.	.	.
.	.	.	.	.	.	.	.	.	.	.	.	2g\	Pa-	ab	au-
=10	=10	=10	=10	=10	=10	=10	=10	=10	=10	=10	=10	=10	=10	=10	=10
!	!	!	!	!	!	!	!	!	!	!	!	!LO:TX:t=P:problem=zapis niewyraźny, porawana strona	!	!	!
0FF/	-ter-	al-	-cto-	0c\	-ter-	al-	-cto-	0f\	-ter-	al-	-cto-	0a\	-ter-	al-	-cto-
!	!	!	!	!	!	!	!	!	!	!	!	!LO:LB:g=original	!	!	!
1FF/	-nae	-vo	-re(m)	1c\	-nae	-vo	-re(m)	1f\	-nae	-vo	-re(m)	1a\	-nae	-vo	-re(m)
!LO:LB:g=original	!	!	!	!LO:LB:g=original	!	!	!	!	!	!	!	!	!	!	!
=11	=11	=11	=11	=11	=11	=11	=11	=11	=11	=11	=11	=11	=11	=11	=11
!	!	!	!	!	!	!	!	!LO:TX:a:t=2da	!	!	!	!	!	!	!
*	*ij	*ij	*ij	*	*ij	*ij	*ij	*	*ij	*ij	*ij	*	*ij	*ij	*ij
1F\	Pa-	Sa-	Sa-	1A\	Pa-	Sa-	Sa-	1A\	Pa-	Sa-	Sa-	1d\	Pa-	Sa-	Sa-
1D\	-rem	-cra-	-lu-	1d\	-rem	-cra-	-lu-	1A\	-rem	-cra-	-lu-	1.e\	-rem	-cra-	-lu-
!	!	!	!	!LO:N:acc=#	!	!	!	!LO:N:acc=#	!	!	!	!	!	!	!
1G\	Pa-	-ta	-tis	2Bn\	Pa-	-ta	-tis	1Bn\	Pa-	-ta	-tis	.	.	.	.
.	.	.	.	2A\	.	.	.	.	.	.	.	2e\	Pa-	-ta	-tis
=12	=12	=12	=12	=12	=12	=12	=12	=12	=12	=12	=12	=12	=12	=12	=12
1.C/	ter-	ab	au-	0G/	ter-	ab	au-	1.c\	ter-	ab	au-	2f\	-ter-	ab	au-
.	.	.	.	.	.	.	.	.	.	.	.	2e\	-nae	al-	-cto-
.	.	.	.	.	.	.	.	.	.	.	.	2f\	Pa-	-bo	-rem
2D/	.	.	.	.	.	.	.	4B-/	-nae	al-	.	2g\	.	ab	au-
.	.	.	.	.	.	.	.	4A/	pa-	-bo	.	.	.	.	.
1E-X\	.	al-	-cto-	1c\	.	al-	-cto-	1G/	-ter-	al-	-cto-	1a\	ter-	al-	-cto-
=13	=13	=13	=13	=13	=13	=13	=13	=13	=13	=13	=13	=13	=13	=13	=13
1F\	-nae	-bo	-rem	1A\	-nae	-bo	-rem	1c\	-nae	-bo	-rem	1f\	-nae	-bo	-rem
*	*Xij	*Xij	*Xij	*	*Xij	*Xij	*Xij	*	*Xij	*Xij	*Xij	*	*Xij	*Xij	*Xij
1.G\	glo-	vir-	no-	1.G/	glo-	vir-	no-	1.c\	glo-	vir-	no-	1.e\	glo-	vir-	no-
!	!	!	!	!	!	!	!	!LO:N:acc=#	!	!	!	!	!	!	!
2G\	-ri-	-gi-	.	2G/	-ri-	-gi-	.	2Bn\	-ri-	-gi-	.	2e\	-ri-	-gi-	.
=14	=14	=14	=14	=14	=14	=14	=14	=14	=14	=14	=14	=14	=14	=14	=14
0C/	-ae	-nis	-vae	0G/	-ae	-nis	-vae	0c\	-ae	-nis	-vae	0d\	-ae	-nis	-vae
1E-X\	Pa-	naſ-	no-	1G/	Pa-	naſ-	no-	2B-\	Pa-	naſ-	no-	1g\	Pa-	naſ-	no-
.	.	.	.	.	.	.	.	2c\	.	.	.	.	.	.	.
=15	=15	=15	=15	=15	=15	=15	=15	=15	=15	=15	=15	=15	=15	=15	=15
(<1.D\	-ter	-cen-	-vo	1.A\	-ter	-cen-	-vo	(1d\	-ter	-cen-	-vo	0f\	-ter	-cen-	-vo
.	.	.	.	.	.	.	.	1A\)	.	.	.	.	.	.	.
2C/)	.	.	.	4B-\	.	.	.	.	.	.	.	.	.	.	.
.	.	.	.	4c\	.	.	.	.	.	.	.	.	.	.	.
1BB-/	Su-	-do	ſa-	2d\	Su-	-do	ſa-	1B-\	Su-	-do	ſa-	1g\	Su-	-do	ſa-
.	.	.	.	2d\	.	.	.	.	.	.	.	.	.	.	.
=16	=16	=16	=16	=16	=16	=16	=16	=16	=16	=16	=16	=16	=16	=16	=16
1AA/	-pre-	for-	-lu-	1c\	-pre-	for-	-lu-	1c\	-pre-	for-	-lu-	1a\	-pre-	for-	-lu-
1BB-/	-m(us)	-ma(m)	-tat	1B-\	-m(us)	-ma(m)	-tat	1d\	-m(us)	-ma(m)	-tat	1d\	-m(us)	-ma(m)	-tat
*	*ij	*ij	*ij	*	*ij	*ij	*ij	*	*ij	*ij	*ij	*	*ij	*ij	*ij
1GG/	Pa-	na-	no-	1B-\	Pa-	na-	no-	1d\	Pa-	na-	no-	1b-\	Pa-	na-	no-
=17	=17	=17	=17	=17	=17	=17	=17	=17	=17	=17	=17	=17	=17	=17	=17
1AA/	-ter	-scen-	-vae	1c\	-ter	-scen-	-vae	(1c\	-ter	-scen-	-vae	1a\	-ter	-scen-	-vae
2BB-/	su-	-do	no-	1.d\	su-	-do	no-	1B-\	su-	-do	no-	1g\	su-	-do	no-
2C/	.	.	.	.	.	.	.	.	.	.	.	.	.	.	.
1D\	-pre-	for-	.	.	.	.	.	1A\)	-pre-	for-	.	1f\	-pre-	for-	.
.	.	.	.	2d\	-pre-	for-	.	.	.	.	.	.	.	.	.
=18	=18	=18	=18	=18	=18	=18	=18	=18	=18	=18	=18	=18	=18	=18	=18
1E-X\	-mus	-mam	-vo	1B-\	-mus	-mam	-vo	2G/	-mus	-mam	-vo	2g\	-mus	-mam	-vo
*	*Xij	*Xij	*Xij	*	*Xij	*Xij	*Xij	*	*Xij	*Xij	*Xij	*	*Xij	*Xij	*Xij
.	.	.	.	.	.	.	.	2A/	e-	Sum-	Can-	2g\	e-	Sum-	Can-
1.D\	e-	Sum-	Can-	[1.d\	e-	Sum-	Can-	1.B-\	-di-	-pſe-	-ti-	1.g\	-di-	-pſe-	-ti-
!	!	!	!	!LO:TX:t=P:problem=brak kreski taktowej	!	!	!	!	!	!LO:TX:t=P:problem=# above	!	!	!	!	!
2D\	-di-	-pſe-	-ti-	2d\]	-di-	-pſe-	-ti-	2A/	.	.	.	2f#X\	.	.	.
=19	=19	=19	=19	=19-	=19	=19	=19	=19	=19	=19	=19	=19	=19	=19	=19
0.GG/;;	-dit	-ris	-co	0.d\	-dit	-ris	-co	0.B-\	-dit	-ris	-co	0.g\;;	-dit	-ris	-co
!LO:LB:g=original	!	!	!	!LO:LB:g=original	!	!	!	!LO:LB:g=original	!	!	!	!LO:LB:g=original	!	!	!
=20||	=20||	=20||	=20||	=20||	=20||	=20||	=20||	=20||	=20||	=20||	=20||	=20||	=20||	=20||	=20||
*k[b-]	*	*	*	*k[b-]	*	*	*	*k[b-]	*	*	*	*k[b-]	*	*	*
*M3/1	*	*	*	*M3/1	*	*	*	*M3/1	*	*	*	*M3/1	*	*	*
1r	.	.	.	1r	.	.	.	1r	.	.	.	1r	.	.	.
1r	.	.	.	1r	.	.	.	1r	.	.	.	1r	.	.	.
1G\	2 Tu	6 Et	.	1B-\	2 Tu	6 Et	.	1d\	2 Tu	6 Et	.	1g\	2 Tu	6 Et	.
=21	=21	=21	=21	=21	=21	=21	=21	=21	=21	=21	=21	=21	=21	=21	=21
1D\	lu-	nos	.	[<1A\	lu-	nos	.	[<1d\	lu-	nos	.	1f\	lu-	nos	.
1D\	-men	be-	.	1A\]	-men	be-	.	1d\]	-men	be-	.	1f\	-men	be-	.
1G\	tu	-a-	.	1B-\	tu	-a-	.	1B-\	tu	-a-	.	1g\	tu	-a-	.
=22	=22	=22	=22	=22	=22	=22	=22	=22	=22	=22	=22	=22	=22	=22	=22
1.F\	Splen-	-ta	.	0c\	Splen-	-ta	.	2c\	Splen-	-ta	.	1.a\	Splen-	-ta	.
.	.	.	.	.	.	.	.	2A\	.	.	.	.	.	.	.
.	.	.	.	.	.	.	.	2B-\	.	.	.	.	.	.	.
2E-X\	.	.	.	.	.	.	.	2c\	.	.	.	2g\	.	.	.
!LO:TX:t=P:problem=brak kreski taktowej	!	!	!	!	!	!	!	!	!	!	!	!	!	!	!
1D\	.	quos	.	1B-\	.	quos	.	1d\	.	quos	.	1f\	.	quos	.
=23-	=23	=23	=23	=23	=23	=23	=23	=23	=23	=23	=23	=23	=23	=23	=23
1E-X\	-dor	Sa-	.	0B-\	-dor	Sa-	.	1c\	-dor	Sa-	.	1g\	-dor	Sa-	.
0F\	Pa-	-cri	.	.	.	.	.	0c\	Pa-	-cri	.	0f\	Pa-	-cri	.
.	.	.	.	1A\	Pa-	-cri	.	.	.	.	.	.	.	.	.
=24	=24	=24	=24	=24	=24	=24	=24	=24	=24	=24	=24	=24	=24	=24	=24
0BB-/	-tris	ri-	.	0B-\	-tris	ri-	.	0d\	-tris	ri-	.	0f\	-tris	ri-	.
1B-\	tu	-ga-	.	1B-\	tu	-ga-	.	1d\	tu	-ga-	.	1g\	tu	-ga-	.
=25	=25	=25	=25	=25	=25	=25	=25	=25	=25	=25	=25	=25	=25	=25	=25
1.A\	Spes	-vit	.	1.c\	Spes	-vit	.	1e\	Spes	-vit	.	1.f\	Spes	-vit	.
.	.	.	.	.	.	.	.	1A\	.	.	.	.	.	.	.
2G\	.	.	.	2B-\	.	.	.	.	.	.	.	2e\	.	.	.
1F\	pe-	un-	.	1A\	pe-	un-	.	2B-\	pe-	un-	.	1d\	pe-	un-	.
.	.	.	.	.	.	.	.	2c\	.	.	.	.	.	.	.
=26	=26	=26	=26	=26	=26	=26	=26	=26	=26	=26	=26	=26	=26	=26	=26
1D\	-ren-	-da	.	1A\	-ren-	-da	.	1d\	-ren-	-da	.	1g\	-ren-	-da	.
1.AA/	-nis	San-	.	1.A\	-nis	San-	.	1.d\	-nis	San-	.	1.e\	-nis	San-	.
!	!	!	!	!	!	!	!	!LO:TX:t=P:problem=brak kreski taktowej	!	!	!	!	!	!	!
!	!	!	!	!	!	!	!	!LO:TX:t=P:problem=# below	!	!	!	!	!	!	!
2AA/	o(m)-	-gui-	.	2A/	o(m)-	-gui-	.	2c#X\	o(m)-	-gui-	.	2e\	o(m)-	-gui-	.
=27	=27	=27	=27	=27	=27	=27	=27	=27-	=27	=27	=27	=27	=27	=27	=27
0D\	-(n)i-	-nis	.	0A\	-(n)i-	-nis	.	0d\	-(n)i-	-nis	.	0d\	-(n)i-	-nis	.
1BBn/	-um	Na-	.	1Bn\	-um	Na-	.	1d\	-um	Na-	.	1f\	-um	Na-	.
=28	=28	=28	=28	=28	=28	=28	=28	=28	=28	=28	=28	=28	=28	=28	=28
!	!	!	!	!	!	!	!	!	!	!	!	!LO:TX:t=P:problem=- above	!	!	!
1C/	in-	-ta-	.	1G/	in-	-ta-	.	1c\	in-	-ta-	.	1e-X\	in-	-ta-	.
1C/	-ten-	-lis	.	1G/	-ten-	-lis	.	1c\	-ten-	-lis	.	1e-\	-ten-	-lis	.
!LO:N:acc=#	!	!	!	!	!	!	!	!	!	!	!	!	!	!	!
1En\	-de	.	.	1c\	-de	.	.	1c\	-de	.	.	1g\	-de	.	.
!LO:LB:g=original	!	!	!	!LO:LB:g=original	!	!	!	!LO:LB:g=original	!	!	!	!	!	!	!
=29	=29	=29	=29	=29	=29	=29	=29	=29	=29	=29	=29	=29	=29	=29	=29
*	*ij	*ij	*	*	*ij	*ij	*	*	*ij	*ij	*	*	*ij	*ij	*
1F\	in-	Na-	.	1A\	in-	Na-	.	1c\	in-	Na-	.	1f\	in-	Na-	.
!	!	!	!	!	!	!	!	!	!	!	!	!LO:LB:g=original	!	!	!
1F\	-ten-	-ta-	.	1A\	-ten-	-ta-	.	1c\	-ten-	-ta-	.	1d\	-ten-	-ta-	.
1E-X\	-de	-lis	.	1c\	-de	-lis	.	1c\	-de	-lis	.	1f\	-de	-lis	.
*	*Xij	*Xij	*	*	*Xij	*Xij	*	*	*Xij	*Xij	*	*	*Xij	*Xij	*
=30	=30	=30	=30	=30	=30	=30	=30	=30	=30	=30	=30	=30	=30	=30	=30
!	!	!	!	!	!	!	!	!LO:N:acc=#	!	!	!	!	!	!	!
0D\	quas	ob-	.	0d\	quas	ob-	.	0Bn\	quas	ob-	.	0g\	quas	ob-	.
1E\	fun-	-die(m)	.	1c\	fun-	-die(m)	.	1c\	fun-	-die(m)	.	1f\	fun-	-die(m)	.
=31	=31	=31	=31	=31	=31	=31	=31	=31	=31	=31	=31	=31	=31	=31	=31
1F\	-dunt	tu-	.	1A\	-dunt	tu-	.	0c\	-dunt	tu-	.	1.f\	-dunt	tu-	.
0G\	pre-	.	.	0G/	pre-	.	.	.	.	.	.	.	.	.	.
.	.	.	.	.	.	.	.	.	.	.	.	4e\	.	.	.
.	.	.	.	.	.	.	.	.	.	.	.	4d\	.	.	.
!	!	!	!	!	!	!	!	!LO:N:acc=#	!	!	!	!	!	!	!
.	.	.	.	.	.	.	.	1Bn\	pre-	.	.	1e\	pre-	.	.
=32	=32	=32	=32	=32	=32	=32	=32	=32	=32	=32	=32	=32	=32	=32	=32
0C/	-ces	-i	.	0G/	-ces	-i	.	0c\	-ces	-i	.	0d\	-ces	-i	.
1C/	tu-	hy-	.	1G/	tu-	hy-	.	1c\	tu-	hy-	.	1g\	tu-	hy-	.
=33	=33	=33	=33	=33	=33	=33	=33	=33	=33	=33	=33	=33	=33	=33	=33
0AA/	-i	-mni	.	0A\	-i	-mni	.	0c\	-i	-mni	.	0f\	-i	-mni	.
1D\	per	tri-	.	1A\	per	tri-	.	1c\	per	tri-	.	1f\	per	tri-	.
=34	=34	=34	=34	=34	=34	=34	=34	=34	=34	=34	=34	=34	=34	=34	=34
1G\	or-	-bu-	.	1B-X\	or-	-bu-	.	1B-\	or-	-bu-	.	1d\	or-	-bu-	.
1G\	-be(m)	-tu(m)	.	1B-\	-be(m)	-tu(m)	.	1B-\	-be(m)	-tu(m)	.	1d\	-be(m)	-tu(m)	.
1E-X\	tu-	hy-	.	1e-X\	tu-	hy-	.	1B-\	tu-	.	.	1g\	tu-	.	.
=35	=35	=35	=35	=35	=35	=35	=35	=35	=35	=35	=35	=35	=35	=35	=35
!LO:N:acc=#	!	!	!	!	!	!	!	!	!	!	!	!	!	!	!
0BBn/	-i	-mni	.	0d\	-i	-mni	.	0d\	-i	hy-	.	0g\	-i	hy-	.
1BB/	p(er)	tri-	.	1G/	p(er)	tri-	.	1d\	p(er)	-mni	.	1f\	p(er)	-mni	.
=36	=36	=36	=36	=36	=36	=36	=36	=36	=36	=36	=36	=36	=36	=36	=36
1.C/	or-	-bu-	.	0.G/	or-	-bu-	.	1.c\	or-	tri-	.	1.e-X\	or-	tri-	.
2D\	.	.	.	.	.	.	.	4B-\	.	-bu-	.	2d\	.	-bu-	.
.	.	.	.	.	.	.	.	4A\	.	.	.	.	.	.	.
1E-X\	.	.	.	.	.	.	.	2G/	.	.	.	2e-\	.	.	.
.	.	.	.	.	.	.	.	2A/	.	.	.	2f\	.	.	.
=37	=37	=37	=37	=37	=37	=37	=37	=37	=37	=37	=37	=37	=37	=37	=37
1BB-/	-bem	-tum	.	1G/	-bem	-tum	.	1B-\	-bem	-tum	.	2g\	-bem	-tum	.
!	!	!	!	!	!	!	!	!	!	!	!	!LO:TX:t=P:problem=skreslona nuta	!	!	!
.	.	.	.	.	.	.	.	.	.	.	.	2g\	ser-	sol-	.
1.D\	ser-	sol-	.	1.A\	ser-	sol-	.	1.A\	ser-	sol-	.	1.g\	.	.	.
2D/	-vu-	-vi-	.	2A\	-vu-	-vi-	.	2A/	-vu-	-vi-	.	2f#X\	-vu-	-vi-	.
=38	=38	=38	=38	=38	=38	=38	=38	=38	=38	=38	=38	=38	=38	=38	=38
!	!	!	!	!LO:N:acc=#	!	!	!	!	!	!	!	!	!	!	!
0.GG/;	-li	-m(us)	.	0.Bn\;<	-li	-m(us)	.	0.G/;<	-li	-m(us)	.	0.g\;;	-li	-m(us)	.
!LO:LB:g=original	!	!	!	!	!	!	!	!LO:LB:g=original	!	!	!	!LO:LB:g=original	!	!	!
=39||	=39||	=39||	=39||	=39||	=39||	=39||	=39||	=39||	=39||	=39||	=39||	=39||	=39||	=39||	=39||
*k[b-]	*	*	*	*k[b-]	*	*	*	*k[b-]	*	*	*	*k[b-]	*	*	*
*M4/4	*	*	*	*M4/4	*	*	*	*M4/4	*	*	*	*M4/4	*	*	*
*met(c)	*	*	*	*met(c)	*	*	*	*met(c)	*	*	*	*met(c)	*	*	*
4r	.	.	.	4r	.	.	.	4r	.	.	.	4r	.	.	.
8r	.	.	.	8r	.	.	.	8r	.	.	.	8r	.	.	.
8G\	4 Teſ-	7 Je-	.	8G/	4 Teſ-	7 Je-	.	8B-\	4 Teſ-	7 Je-	.	8g\	4 Teſ-	7 Je-	.
[4F#X\	-ta-	-ſu	.	4A/	-ta-	-ſu	.	4d\	-ta-	-ſu	.	4an\	-ta-	-ſu	.
*	*	*ij	*	*	*	*ij	*	*	*	*ij	*	*	*	*ij	*
8F#X\]	-tur	Je-	.	8A/	-tur	Je-	.	8d\	-tur	Je-	.	8a\	-t(ur)	Je-	.
*	*ij	*	*	*	*ij	*	*	*	*ij	*	*	*	*ij	*	*
8G\	Teſ-	-su	.	8B-/	Teſ-	-su	.	8B-\	Teſ-	-su	.	8g\	Teſ-	-su	.
*	*	*Xij	*	*	*	*Xij	*	*	*	*Xij	*	*	*	*Xij	*
=40	=40	=40	=40	=40	=40	=40	=40	=40	=40	=40	=40	=40	=40	=40	=40
8E-X\	-ta-	ti-	.	8.B-/	-ta-	ti-	.	8e-X\	-ta-	ti-	.	8g\	-ta-	ti-	.
8BB-\	-tur	-bi	.	.	.	.	.	8d\	-tur	-bi	.	8g\	-tur	-bi	.
*	*Xij	*	*	*	*	*	*	*	*Xij	*	*	*	*Xij	*	*
.	.	.	.	16B-/	-tur	-bi	.	.	.	.	.	.	.	.	.
*	*	*	*	*	*Xij	*	*	*	*	*	*	*	*	*	*
8C\	hoc	sit	.	8.A/	hoc	sit	.	8e-\	hoc	sit	.	8g\	hoc	sit	.
8D\	prae-	glo-	.	.	.	.	.	8d\	prae-	glo-	.	8f\	prae-	glo-	.
.	.	.	.	16A/	prae-	glo-	.	.	.	.	.	.	.	.	.
!	!	!	!	!	!	!	!	!	!	!	!	!LO:TX:t=P:problem=zapis niewyraźny,poprawiany	!	!	!
8.G\	-ſens	-ri-	.	8.B-\	-ſens	-ri-	.	8.d\	-ſens	-ri-	.	8e-X\	-ſens	-ri-	.
!	!	!	!	!	!	!	!	!	!	!	!	!LO:TX:a:t=d.	!	!	!
.	.	.	.	.	.	.	.	.	.	.	.	8e-\	di-	-a	.
16G\	di-	-a	.	16B-\	di-	-a	.	16d\	di-	-a	.	.	.	.	.
8G\	-es	.	.	8B-\	-es	.	.	8d\	-es	.	.	8d\	-es	qui	.
8D\	cur-	qui	.	8F\	cur-	qui	.	8d\	cur-	qui	.	8d\	.	qui	.
=41	=41	=41	=41	=41	=41	=41	=41	=41	=41	=41	=41	=41	=41	=41	=41
8.E-X\	-rens	na-	.	8.G\	-rens	na-	.	8.B-\	-rens	na-	.	8g\	.	na-	.
.	.	.	.	.	.	.	.	.	.	.	.	8f\	cur-	-tus	.
16F\	per	-tus	.	16A\	per	-tus	.	16B-\	per	-tus	.	.	.	.	.
!	!	!	!	!	!	!	!	!	!	!	!	!LO:TX:t=P:problem=- above	!	!	!
8G\	an-	es	.	8B-\	an-	es	.	8B-\	an-	es	.	8e-X\	-renſ	es	.
!	!	!	!	!	!	!	!	!	!	!	!	!LO:TX:t=P:problem=skreslone trzy nuty	!	!	!
8D\	-ni	de	.	8B-\	-ni	de	.	8d\	-ni	de	.	8d\	.	de	.
4E-X\	Cir-	Vir-	.	4.B-\	Cir-	Vir-	.	4.c\	Cir-	Vir-	.	4g\	.	.	.
8.F\	-cu-	-gi-	.	.	.	.	.	.	.	.	.	8.f\	Cir-	Vir-	.
.	.	.	.	8A\	-cu-	-gi-	.	8c\	-cu-	-gi-	.	.	.	.	.
16F\	.	.	.	.	.	.	.	.	.	.	.	16f\	-cu-	-gi-	.
=42	=42	=42	=42	=42	=42	=42	=42	=42	=42	=42	=42	=42	=42	=42	=42
2BB-/	-lum	-ne	.	8B-\	-lu(m)	-ne	.	2d\	-lum	-ne	.	2d\	-lu(m)	-ne	.
.	.	.	.	8d\	q(uo)d	cum	.	.	.	.	.	.	.	.	.
.	.	.	.	8.d\	so-	Pa-	.	.	.	.	.	.	.	.	.
.	.	.	.	16c\	-l(us)	-tre	.	.	.	.	.	.	.	.	.
!LO:LB:g=original	!	!	!	!LO:LB:g=original	!	!	!	!	!	!	!	!	!	!	!
8r	.	.	.	4.B-\	e	al-	.	8r	.	.	.	8r	.	.	.
8B-\	q(uo)d	cu(m)	.	.	.	.	.	8d\	q(uo)d	cu(m)	.	8f\	q(u)o(d)	cum	.
8A\	so-	Pa-	.	.	.	.	.	8c\	so-	Pa-	.	8f\	ſo-	Pa-	.
8B-\	-lus	-tre	.	8B-\	ſi-	-mo	.	8d\	-lus	-tre	.	8f\	-lus	-tre	.
!	!	!	!	!	!	!	!	!LO:LB:g=original	!	!	!	!	!	!	!
=43	=43	=43	=43	=43	=43	=43	=43	=43	=43	=43	=43	=43	=43	=43	=43
4G\	e	et	.	(4B-\	-nu	ſpi-	.	4B-\	e	et	.	4g\	e	et	.
4A\	ſi-	al-	.	8.A\)	.	.	.	4c\	ſi-	al-	.	4f\	si-	al-	.
.	.	.	.	16A\	Pa-	-ri-	.	.	.	.	.	.	.	.	.
!	!	!	!	!	!	!	!	!	!	!	!	!LO:LB:g=original	!	!	!
4B-\	-nu	-mo	.	8d\	-tris	-tu	.	4d\	-nu	-mo	.	4f\	-nu	-mo	.
.	.	.	.	8d\	mu(n)-	in	.	.	.	.	.	.	.	.	.
8.c\	.	ſpi-	.	8.c\	-di	ſem-	.	8.c\	.	ſpi-	.	4e\	Pa-	Spi-	.
16C/	Pa-	-ri-	.	16B-\	ſa-	-pi-	.	16c\	Pa-	-ri-	.	.	.	.	.
=44	=44	=44	=44	=44	=44	=44	=44	=44	=44	=44	=44	=44	=44	=44	=44
8F\	-tris	-tu	.	8A\L	-lus	-ter-	.	8c\	-tris	-tu	.	8f,\	-tris	-ri-	.
8F\	mun-	in	.	8F\	.	.	.	8c\	mun-	in	.	8a\	mun-	-tu	.
8F\	-di	ſem-	.	8G\	.	.	.	8c\	-di	ſem-	.	8a\	-di	in	.
8E-X\	.	-pi-	.	8A\J	.	.	.	8c\	.	-pi-	.	8g\	Sa-	Sem-	.
8D/L	sa-	-ter-	.	8B-\	.	-na	.	4.d\	sa-	-ter-	.	8f\L	-lus	-pi-	.
*	*	*	*	*	*	*ij	*	*	*	*	*	*	*	*	*
8BB-/	.	.	.	8B-\	.	spi-	.	.	.	.	.	8d\	.	.	.
8C/	-lus	-na	.	8.B-\	mun-	-ri-	.	.	.	.	.	8e-X\	.	-ter-	.
8D/J	.	.	.	.	.	.	.	8c\	-lus	-na	.	8f\J	.	.	.
.	.	.	.	16A\	-di	.	.	.	.	.	.	.	.	.	.
=45	=45	=45	=45	=45	=45	=45	=45	=45	=45	=45	=45	=45	=45	=45	=45
*	*ij	*ij	*	*	*	*ij	*	*	*ij	*ij	*	*	*	*	*
8E-X\	pa-	in	.	4G/	sa-	-tu	.	8B-\	pa-	in	.	8g,\	.	-na	.
*	*	*	*	*	*	*Xij	*	*	*	*	*	*	*	*	*
8E-\	-tris	sem-	.	.	.	.	.	8B-\	-tris	sem-	.	8g\	mun-	in	.
8E-\	mun-	-pi-	.	8G/	-lus	in	.	8A\	mun-	-pi-	.	8g\	-di	sem-	.
*	*	*	*	*	*ij	*	*	*	*	*	*	*	*	*	*
8D\	-di	-ter-	.	8G/	mun-	ſem-	.	8B-\	-di	-ter-	.	8f\	Sa-	-pi-	.
8C/L	sa-	-na	.	(8G/L	-di	-pi-	.	4.c\	sa-	-na	.	8e-X\L	-lus.	-ter-	.
*	*	*Xij	*	*	*	*	*	*	*	*Xij	*	*	*	*	*
8AA/	.	.	.	8A/J)	.	.	.	.	.	.	.	8c\	.	.	.
8BB-/	.	.	.	(8A/L	sa-	-ter-	.	.	.	.	.	8d\	.	.	.
8C/J	-lus	.	.	8G/J)	.	.	.	8B-\	-lus	.	.	8e-\J	.	.	.
*	*Xij	*	*	*	*	*	*	*	*Xij	*	*	*	*	*	*
=46	=46	=46	=46	=46	=46	=46	=46	=46	=46	=46	=46	=46	=46	=46	=46
4D/	ad-	.	.	4F#X/	-lus	-na	.	4A\	ad-	.	.	4f,\	.	-na	.
*	*	*	*	*	*Xij	*	*	*	*	*	*	*	*	*	*
4GG/	-ve-	sae-	.	4G/	ad-	sae-	.	4B-\	-ve-	sae-	.	4g\	ad-	sae-	.
4.D/	.	.	.	4.A/	-ve-	.	.	4.A\	.	.	.	4.f#X\	-ve-	.	.
8D/	-ne-	-cu-	.	8d\	-ne-	-cu-	.	8A\	-ne-	-cu-	.	8f#\	-ne-	-cu-	.
=47	=47	=47	=47	=47	=47	=47	=47	=47	=47	=47	=47	=47	=47	=47	=47
!	!	!	!	!	!	!	!	!LO:N:acc=#	!	!	!	!	!	!	!
0GG/;<	-ris	-la	.	0d\;	-ris	-la	.	0Bn\;;	-ris	-la	.	0g\;	-ris.	-la	.
==	==	==	==	==	==	==	==	==	==	==	==	==	==	==	==
*-	*-	*-	*-	*-	*-	*-	*-	*-	*-	*-	*-	*-	*-	*-	*-
!!!system-decoration: [(s1,s2,s3,s4)]
!!!RDF**kern: > = above
!!!RDF**kern: < = below
!!!EED: Leszek Kubiak
!!!EEV: 2021-04-06
!!!ENC: Andrzej Gręziak
!!!END: 2021-03-27
!!!YEC: Copyright 2022 Narodowy Instytut Fryderyka Chopina (https://polishscores.org)
!!!YEM: License CC-BY-4.0 (https://creativecommons.org/licenses/by/4.0)
